pix_core/t/unlocked.svg

<svg preserveAspectRatio="xMinYMid meet" viewBox="0 0 576 512" xmlns="http://www.w3.org/2000/svg"><path d="m352 144c0-44.2 35.8-80 80-80s80 35.8 80 80v48c0 17.7 14.3 32 32 32s32-14.3 32-32v-48c0-79.5-64.5-144-144-144s-144 64.5-144 144v48h-224c-35.3 0-64 28.7-64 64v192c0 35.3 28.7 64 64 64h320c35.3 0 64-28.7 64-64v-192c0-35.3-28.7-64-64-64h-32z" fill="#fff"/></svg>

<svg xmlns="http://www.w3.org/2000/svg" viewBox="0 0 576 512" preserveAspectRatio="xMinYMid meet"><!--!Font Awesome Free 6.5.2 by @fontawesome - https://fontawesome.com License - https://fontawesome.com/license/free Copyright 2024 Fonticons, Inc.--><path fill="#fff" d="M352 144c0-44.2 35.8-80 80-80s80 35.8 80 80v48c0 17.7 14.3 32 32 32s32-14.3 32-32V144C576 64.5 511.5 0 432 0S288 64.5 288 144v48H64c-35.3 0-64 28.7-64 64V448c0 35.3 28.7 64 64 64H384c35.3 0 64-28.7 64-64V256c0-35.3-28.7-64-64-64H352V144z"/></svg>
